config/expand/iconfont/module-menu/module-caigoucangchu.svg

<?xml version="1.0" encoding="UTF-8"?>
<svg width="20px" height="20px" viewBox="0 0 20 20" version="1.1" xmlns="http://www.w3.org/2000/svg" xmlns:xlink="http://www.w3.org/1999/xlink">
    <!-- Generator: Sketch 53 (72520) - https://sketchapp.com -->
    <title>module-caigoucangchu</title>
    <desc>Created with Sketch.</desc>
    <defs>
        <linearGradient x1="14.3387761%" y1="50%" x2="100%" y2="50%" id="linearGradient-1">
            <stop stop-color="#B7B7B7" offset="0%"></stop>
            <stop stop-color="#FFFFFF" offset="100%"></stop>
        </linearGradient>
    </defs>
    <g id="Page-2" stroke="none" stroke-width="1" fill="none" fill-rule="evenodd">
        <g id="图标" transform="translate(-328.000000, -440.000000)">
            <g id="module-caigoucangchu" transform="translate(328.000000, 440.000000)">
                <path d="M19.7319449,7.16357674 C19.6136543,7.03745743 19.4852963,6.94160676 19.3720393,6.85584563 L19.3594552,6.84575609 C18.6220263,6.28074158 17.8820805,5.71824946 17.1446516,5.15323496 C15.0884077,3.58431076 12.9616928,1.95989406 10.8802808,0.350611679 C10.6864854,0.201790894 10.3819499,0 9.99939294,0 C9.61431913,0 9.31230045,0.201790894 9.11850513,0.353134065 C7.59834443,1.53865557 6.03791458,2.72922184 4.530338,3.87942994 C4.03955764,4.25526548 3.54877728,4.62857864 3.05548011,5.00441418 C2.62006984,5.33989154 2.18214275,5.67284651 1.74673249,6.00580149 C1.31132222,6.33875646 0.87842878,6.67171144 0.443018515,7.00214403 C0.231605438,7.16357674 0.0931802097,7.35275571 0.0327764735,7.56211376 C-0.0452450191,7.83200908 0.0176755395,8.11703872 0.203920393,8.36171018 C0.387648424,8.60385925 0.64184748,8.7400681 0.916181115,8.7400681 C1.03698859,8.7400681 1.15779606,8.71484424 1.28112035,8.66439652 L1.28112035,10.6469921 C1.28112035,12.8162442 1.27860353,15.0561231 1.28363718,17.2606886 C1.286154,18.0779417 1.54790352,18.7665532 2.04371752,19.2558961 C2.5370147,19.7427166 3.22662402,20 4.04207446,20 L15.6924451,20 C16.6891067,20 17.421502,19.7477614 17.9349338,19.2306722 C18.4458487,18.713583 18.6924973,17.9745239 18.6924973,16.9680918 L18.6924973,10.836171 L18.6924973,8.65682936 C18.8158216,8.71736663 18.9466964,8.74763526 19.0775711,8.74763526 C19.3217029,8.74763526 19.5582842,8.63917266 19.7394954,8.43990415 C20.0893337,8.05902384 20.0868169,7.54697944 19.7319449,7.16357674 Z M16.9328271,17.2357395 C16.9328271,17.8688584 16.6735944,18.1160523 16.0141869,18.1185747 C15.1609842,18.121097 14.1143975,18.121097 12.9189069,18.121097 L4.0607479,18.121097 C3.3736554,18.1185747 3.11693952,17.8713808 3.11693952,17.2029485 C3.11190588,15.5633975 3.11190588,13.8907807 3.11190588,12.2764535 C3.11190588,10.6621264 3.11190588,8.9176341 3.10687223,7.27808308 C3.10687223,7.26042638 3.10938905,7.25033683 3.10938905,7.24276968 C3.1144227,7.23520252 3.13204045,7.21754581 3.17482643,7.18475479 C5.17821702,5.66123354 7.59237452,3.82639267 10.0236249,1.95225974 C12.1931258,3.62207939 14.5404209,5.25678743 16.8648729,7.18475479 C16.9332021,7.241429 16.9353439,7.24276968 16.9353439,7.32600842 C16.9303103,8.86466399 16.9353439,10.4401564 16.9353439,11.9535881 C16.9353439,13.683945 16.9353439,15.4751139 16.9328271,17.2357395 Z" id="Shape" fill="#333333" fill-rule="nonzero"></path>
                <path d="M12.9284091,12 L12.9071668,12 C12.4138719,11.9973154 11.8875334,11.9973154 11.200697,11.9973154 L6.07656716,11.9973154 C5.83818065,11.9973154 5.47942075,11.9973154 5.2245124,11.7020134 C5.11830059,11.5785235 4.99320668,11.3557047 5.00028747,10.990604 C5.00972852,10.442953 5.30240106,10.209396 5.47470022,10.1181208 C5.68004306,10.0080537 5.90190773,10 6.09308899,10 C8.36838202,10.0026846 10.6413148,10.0026846 12.9166078,10 C13.1195904,10 13.4972324,10 13.763942,10.3033557 C13.8725141,10.4268456 14.0023285,10.6496644 13.9999683,11.0120805 C13.9999683,11.4201342 13.8276691,11.7422819 13.5279158,11.8926174 C13.3202127,12 13.0936275,12 12.9284091,12 L12.9284091,12 Z" id="Path" fill="url(#linearGradient-1)"></path>
                <path d="M12.9656004,16 C11.8155169,15.9972863 10.651264,15.9972863 9.50354205,15.9972863 C8.35582012,15.9972863 7.19156721,15.9972863 6.04148371,16 C5.85019672,16 5.62820935,15.9837178 5.42747609,15.8616011 C5.26925105,15.7666214 5.00239389,15.5251018 5.00003232,14.9959294 C4.99767075,14.6350068 5.12519541,14.412483 5.22910439,14.2903664 C5.48179214,14 5.83130417,14 6.03912214,14 C6.47365061,14.0027137 6.94360259,14.0027137 7.51982513,14.0027137 L11.4754511,14.0027137 C12.0540352,14.0027137 12.5239872,14.0027137 12.9561541,14 L12.9821314,14 C13.1568874,14 13.5182073,14 13.770895,14.2930801 C13.8771656,14.4151967 14.0023287,14.6350068 13.9999671,14.9959294 C13.9976055,15.5223881 13.7331099,15.7639077 13.5748849,15.8588874 C13.3788748,15.9837178 13.1568874,16 12.9656004,16 L12.9656004,16 Z" id="Path" fill="url(#linearGradient-1)"></path>
            </g>
        </g>
    </g>
</svg>

<svg width="20" height="20" xmlns="http://www.w3.org/2000/svg"><path d="M19.732 7.164c-.118-.127-.247-.222-.36-.308l-.013-.01c-.737-.565-1.477-1.128-2.214-1.693A1242.475 1242.475 0 0110.88.351C10.686.2 10.382 0 10 0c-.386 0-.688.202-.881.353A549.015 549.015 0 014.53 3.88c-.49.376-.981.75-1.475 1.125-.435.336-.873.669-1.308 1.002-.436.333-.869.666-1.304.996-.211.162-.35.35-.41.56-.078.27-.015.555.17.8.185.242.439.378.713.378a.944.944 0 00.365-.076v1.983c0 2.17-.002 4.41.003 6.614.002.817.264 1.506.76 1.995.493.487 1.183.744 1.998.744h11.65c.997 0 1.73-.252 2.243-.77.51-.516.757-1.255.757-2.262V8.656a.872.872 0 00.386.092c.244 0 .48-.109.661-.308.35-.381.348-.893-.007-1.276zm-2.8 10.072c0 .633-.258.88-.918.883-.853.002-1.9.002-3.095.002H4.06c-.687-.002-.944-.25-.944-.918-.005-1.64-.005-3.312-.005-4.927 0-1.614 0-3.358-.005-4.998 0-.018.002-.028.002-.035a.353.353 0 01.066-.058c2.003-1.524 4.417-3.359 6.849-5.233 2.17 1.67 4.516 3.305 6.84 5.233.07.056.071.058.071.141-.005 1.539 0 3.114 0 4.628 0 1.73 0 3.521-.002 5.282z"/><path d="M12.928 12h-.02c-.494-.003-1.02-.003-1.707-.003H6.077c-.239 0-.598 0-.852-.295-.107-.123-.232-.346-.225-.711.01-.548.302-.782.475-.873.205-.11.427-.118.618-.118 2.275.003 4.548.003 6.824 0 .203 0 .58 0 .847.303.109.124.238.347.236.71 0 .407-.172.73-.472.88-.208.107-.434.107-.6.107zm.038 4c-1.15-.003-2.315-.003-3.462-.003-1.148 0-2.312 0-3.463.003-.19 0-.413-.016-.614-.138-.158-.095-.425-.337-.427-.866-.002-.361.125-.584.23-.706.252-.29.601-.29.81-.29.434.003.904.003 1.48.003h3.955c.579 0 1.049 0 1.481-.003h.026c.175 0 .536 0 .789.293.106.122.231.342.229.703-.002.526-.267.768-.425.863-.196.125-.418.141-.61.141z"/></svg>
